Adwaita++/devices/16/network-card.svg

<svg height="16" width="16" xmlns="http://www.w3.org/2000/svg">
  <path d="m3.2 0c-.882 0-1.6.718-1.6 1.6v12.8c0 .882.718 1.6 1.6 1.6h9.6c.882 0 1.6-.718 1.6-1.6v-5.6h-.8c-.482 0-.8-.318-.8-.8s.318-.8.8-.8h.8v-5.6c0-.882-.718-1.6-1.6-1.6zm.4 1.6h7.2c.24 0 .4.16.4.4v12c0 .24-.16.4-.4.4h-7.2c-.24 0-.4-.16-.4-.4v-12c0-.24.16-.4.4-.4zm1.2 1.6v2.4h4.8v-2.4zm0 3.2v3.2h4.8v-3.2zm0 4v2.4h4.8v-2.4z" fill="#474747"/>
</svg>

<svg xmlns="http://www.w3.org/2000/svg" width="16" height="16" version="1.1">
 <defs>
  <style id="current-color-scheme" type="text/css">
   .ColorScheme-Text { color: #474747; } .ColorScheme-Highlight { color: #3584E4; }
  </style>
 </defs>
 <path fill="currentColor" class="ColorScheme-Text" d="M 3.2 0 C 2.318 0 1.6 0.718 1.6 1.6 L 1.6 14.4 C 1.6 15.282 2.318 16 3.2 16 L 12.8 16 C 13.682 16 14.4 15.282 14.4 14.4 L 14.4 8.8 L 13.6 8.8 C 13.118 8.8 12.8 8.482 12.8 8 C 12.8 7.518 13.118 7.2 13.6 7.2 L 14.4 7.2 L 14.4 1.6 C 14.4 0.718 13.682 0 12.8 0 L 3.2 0 Z M 3.6 1.6 L 10.8 1.6 C 11.04 1.6 11.2 1.76 11.2 2 L 11.2 14 C 11.2 14.24 11.04 14.4 10.8 14.4 L 3.6 14.4 C 3.36 14.4 3.2 14.24 3.2 14 L 3.2 2 C 3.2 1.76 3.36 1.6 3.6 1.6 Z M 4.8 3.2 L 4.8 5.6 L 9.6 5.6 L 9.6 3.2 L 4.8 3.2 Z M 4.8 6.4 L 4.8 9.6 L 9.6 9.6 L 9.6 6.4 L 4.8 6.4 Z M 4.8 10.4 L 4.8 12.8 L 9.6 12.8 L 9.6 10.4 L 4.8 10.4 Z"/>
</svg>
